X:1
T: Isla Side Lasses
C:Alexander Walker
R:Reel
Q: 232
K:Bm
M:4/4
L:1/8
|:B,2 BF AF CA,|B,2 BF Bc df|ab ae cA ec|df ec B2 B2|
B,2 BF AF CA,|B,2 BF Bc df|ab ae cA ec|df ec B2 B^a|
bB fB aA ec|bB fB aB fB|bB fB aA ec|df ec B2 B^a|
bB fB aA ec|bB fB de f^g|af ed cA Ac|df ec B2 B:|
